apps/web/public/logo.svg

<svg width="417" height="60" viewBox="0 0 417 60" fill="none" xmlns="http://www.w3.org/2000/svg">
<path d="M26.8076 50.5486C24.8766 52.4891 24.8766 55.6349 26.8076 57.5753C28.739 59.5159 31.87 59.5159 33.8012 57.5753C35.7323 55.6349 35.7323 52.4891 33.8012 50.5486L30.3045 47.0352L26.8076 50.5486Z" fill="#3D8F4A"/>
<path d="M26.5083 0H34.1009L34.101 31.112L53.9376 11.1726L59.3065 16.5671L41.6937 34.2721H60.6091V41.9011H0V34.2721H18.9154L1.3025 16.5671L6.67134 11.1726L26.5083 31.112V0Z" fill="#3D8F4A"/>
<path d="M102.124 49.3426C99.612 49.3426 97.296 48.9185 95.1758 48.0704C93.0881 47.1897 91.2613 45.9665 89.6956 44.4007C88.1626 42.8024 86.972 40.9267 86.1238 38.7738C85.2756 36.5883 84.8516 34.2071 84.8516 31.6301C84.8516 29.1184 85.292 26.8024 86.1727 24.6821C87.0534 22.5293 88.2929 20.67 89.8914 19.1041C91.4897 17.5058 93.3654 16.2662 95.5182 15.3856C97.6711 14.5048 100.003 14.0645 102.515 14.0645C104.146 14.0645 105.744 14.2928 107.31 14.7494C108.909 15.1735 110.36 15.8095 111.665 16.6577C113.002 17.5058 114.144 18.517 115.09 19.6913L110.491 24.78C109.708 23.9971 108.892 23.3284 108.044 22.7739C107.229 22.1867 106.348 21.7463 105.402 21.4527C104.489 21.1265 103.51 20.9634 102.466 20.9634C101.064 20.9634 99.7425 21.2244 98.5029 21.7463C97.296 22.2683 96.2359 23.0022 95.3225 23.9482C94.4091 24.8615 93.6752 25.9869 93.1208 27.3243C92.5988 28.6291 92.3378 30.0807 92.3378 31.6791C92.3378 33.31 92.5988 34.7943 93.1208 36.1316C93.6426 37.4365 94.3765 38.5618 95.3225 39.5077C96.2685 40.4211 97.3939 41.1388 98.6986 41.6606C100.036 42.1499 101.504 42.3946 103.102 42.3946C104.146 42.3946 105.157 42.2478 106.136 41.9542C107.115 41.6606 108.012 41.2529 108.827 40.731C109.675 40.2091 110.425 39.6056 111.078 38.9207L114.65 44.6454C113.867 45.526 112.807 46.3253 111.469 47.0429C110.164 47.7605 108.697 48.3314 107.066 48.7554C105.435 49.1469 103.787 49.3426 102.124 49.3426Z" fill="#263A2D"/>
<path d="M118.93 48.8543V12.6465H125.878V48.8543H118.93Z" fill="#263A2D"/>
<path d="M132.539 48.8537V22.97H139.487V48.8537H132.539ZM135.964 17.6367C134.627 17.6367 133.582 17.3105 132.833 16.6581C132.083 16.0057 131.707 15.076 131.707 13.8692C131.707 12.76 132.083 11.863 132.833 11.178C133.616 10.4604 134.659 10.1016 135.964 10.1016C137.301 10.1016 138.345 10.4441 139.096 11.1291C139.846 11.7815 140.221 12.6948 140.221 13.8692C140.221 15.0108 139.83 15.9242 139.046 16.6092C138.297 17.2942 137.269 17.6367 135.964 17.6367Z" fill="#263A2D"/>
<path d="M157.18 49.3429C154.702 49.3429 152.483 48.7557 150.526 47.5814C148.57 46.4071 147.019 44.8088 145.878 42.7862C144.769 40.7638 144.215 38.4642 144.215 35.8873C144.215 33.3429 144.769 31.0595 145.878 29.0371C147.019 26.982 148.57 25.3674 150.526 24.1931C152.483 23.0188 154.702 22.4316 157.18 22.4316C159.497 22.4316 161.617 22.8557 163.542 23.7037C165.466 24.5519 166.967 25.7261 168.043 27.2267L164.227 31.8261C163.77 31.2063 163.2 30.6517 162.514 30.1625C161.829 29.6406 161.079 29.2329 160.264 28.9393C159.48 28.6457 158.665 28.4988 157.817 28.4988C156.479 28.4988 155.289 28.825 154.246 29.4775C153.233 30.0973 152.435 30.9617 151.848 32.0707C151.26 33.1798 150.967 34.4519 150.967 35.8873C150.967 37.2898 151.26 38.5457 151.848 39.6548C152.467 40.7312 153.299 41.612 154.342 42.297C155.387 42.9493 156.561 43.2756 157.866 43.2756C158.713 43.2756 159.513 43.1614 160.264 42.9331C161.014 42.6721 161.715 42.297 162.367 41.8077C163.052 41.3184 163.672 40.7312 164.227 40.0463L167.994 44.6456C166.885 46.0482 165.352 47.19 163.394 48.0706C161.437 48.9188 159.366 49.3429 157.18 49.3429Z" fill="#263A2D"/>
<path d="M178.074 41.0745L176.02 35.3498L188.252 22.9706H197.401L178.074 41.0745ZM171.469 48.8543V12.6465H178.417V48.8543H171.469ZM188.985 48.8543L179.689 37.1601L184.582 33.2458L197.352 48.8543H188.985Z" fill="#263A2D"/>
<path d="M215.733 49.3426C213.221 49.3426 210.905 48.9185 208.784 48.0704C206.697 47.1897 204.87 45.9665 203.305 44.4007C201.771 42.8024 200.581 40.9267 199.732 38.7738C198.885 36.5883 198.461 34.2071 198.461 31.6301C198.461 29.1184 198.901 26.8024 199.782 24.6821C200.663 22.5293 201.902 20.67 203.501 19.1041C205.098 17.5058 206.975 16.2662 209.127 15.3856C211.28 14.5048 213.612 14.0645 216.124 14.0645C217.755 14.0645 219.353 14.2928 220.919 14.7494C222.518 15.1735 223.969 15.8095 225.274 16.6577C226.611 17.5058 227.753 18.517 228.7 19.6913L224.099 24.78C223.316 23.9971 222.501 23.3284 221.653 22.7739C220.838 22.1867 219.956 21.7463 219.011 21.4527C218.097 21.1265 217.118 20.9634 216.075 20.9634C214.672 20.9634 213.351 21.2244 212.112 21.7463C210.905 22.2683 209.845 23.0022 208.932 23.9482C208.018 24.8615 207.284 25.9869 206.729 27.3243C206.208 28.6291 205.946 30.0807 205.946 31.6791C205.946 33.31 206.208 34.7943 206.729 36.1316C207.251 37.4365 207.986 38.5618 208.932 39.5077C209.877 40.4211 211.002 41.1388 212.307 41.6606C213.645 42.1499 215.113 42.3946 216.712 42.3946C217.755 42.3946 218.767 42.2478 219.745 41.9542C220.724 41.6606 221.621 41.2529 222.436 40.731C223.284 40.2091 224.035 39.6056 224.687 38.9207L228.258 44.6454C227.475 45.526 226.416 46.3253 225.078 47.0429C223.773 47.7605 222.306 48.3314 220.674 48.7554C219.043 49.1469 217.396 49.3426 215.733 49.3426Z" fill="#263A2D"/>
<path d="M242.176 49.3429C240.023 49.3429 238.082 48.7557 236.353 47.5814C234.624 46.4071 233.254 44.8088 232.244 42.7862C231.231 40.7638 230.727 38.4478 230.727 35.8383C230.727 33.2287 231.231 30.9291 232.244 28.9393C233.287 26.9168 234.689 25.3348 236.451 24.1931C238.212 23.0188 240.219 22.4316 242.469 22.4316C243.742 22.4316 244.9 22.6274 245.943 23.0188C247.02 23.3775 247.949 23.8832 248.733 24.5355C249.548 25.188 250.232 25.9382 250.787 26.7864C251.342 27.6344 251.733 28.5478 251.961 29.5263L250.494 29.2817V22.9698H257.393V48.8536H250.396V42.6395L251.961 42.4928C251.701 43.406 251.277 44.2704 250.69 45.086C250.102 45.9015 249.368 46.6354 248.487 47.2878C247.64 47.9075 246.678 48.4132 245.601 48.8047C244.524 49.1634 243.383 49.3429 242.176 49.3429ZM244.084 43.3245C245.389 43.3245 246.53 43.0146 247.509 42.3949C248.487 41.7751 249.238 40.9107 249.76 39.8016C250.314 38.6599 250.592 37.3388 250.592 35.8383C250.592 34.3704 250.314 33.0819 249.76 31.9728C249.238 30.8638 248.487 29.9994 247.509 29.3796C246.53 28.7272 245.389 28.401 244.084 28.401C242.811 28.401 241.686 28.7272 240.708 29.3796C239.763 29.9994 239.012 30.8638 238.458 31.9728C237.902 33.0819 237.625 34.3704 237.625 35.8383C237.625 37.3388 237.902 38.6599 238.458 39.8016C239.012 40.9107 239.763 41.7751 240.708 42.3949C241.686 43.0146 242.811 43.3245 244.084 43.3245Z" fill="#263A2D"/>
<path d="M263.383 48.8536V22.9698H270.037L270.233 28.2542L268.863 28.8414C269.222 27.6671 269.857 26.6069 270.772 25.6609C271.717 24.6824 272.843 23.8995 274.148 23.3123C275.453 22.7252 276.822 22.4316 278.257 22.4316C280.214 22.4316 281.846 22.8231 283.15 23.6059C284.487 24.3888 285.482 25.5794 286.135 27.1777C286.821 28.7436 287.163 30.6843 287.163 33.0003V48.8536H280.214V33.5386C280.214 32.3643 280.052 31.3858 279.726 30.6028C279.4 29.8199 278.893 29.2491 278.209 28.8903C277.556 28.4988 276.74 28.3357 275.762 28.401C274.979 28.401 274.246 28.5315 273.56 28.7924C272.907 29.0208 272.337 29.3632 271.848 29.8199C271.391 30.2766 271.016 30.7986 270.722 31.3858C270.462 31.9728 270.331 32.609 270.331 33.2939V48.8536H266.905C266.155 48.8536 265.486 48.8536 264.9 48.8536C264.313 48.8536 263.807 48.8536 263.383 48.8536Z" fill="#263A2D"/>
<path d="M292.84 48.8536V22.9698H299.493L299.689 28.2542L298.32 28.8414C298.678 27.6671 299.314 26.6069 300.227 25.6609C301.174 24.6824 302.299 23.8995 303.604 23.3123C304.908 22.7252 306.279 22.4316 307.714 22.4316C309.671 22.4316 311.303 22.8231 312.607 23.6059C313.944 24.3888 314.939 25.5794 315.592 27.1777C316.276 28.7436 316.619 30.6843 316.619 33.0003V48.8536H309.671V33.5386C309.671 32.3643 309.508 31.3858 309.182 30.6028C308.855 29.8199 308.35 29.2491 307.665 28.8903C307.012 28.4988 306.197 28.3357 305.219 28.401C304.436 28.401 303.702 28.5315 303.017 28.7924C302.365 29.0208 301.794 29.3632 301.304 29.8199C300.848 30.2766 300.472 30.7986 300.179 31.3858C299.917 31.9728 299.787 32.609 299.787 33.2939V48.8536H296.362C295.612 48.8536 294.943 48.8536 294.356 48.8536C293.769 48.8536 293.263 48.8536 292.84 48.8536Z" fill="#263A2D"/>
<path d="M331.989 49.3429C329.836 49.3429 327.894 48.7557 326.165 47.5814C324.438 46.4071 323.067 44.8088 322.056 42.7862C321.045 40.7638 320.539 38.4478 320.539 35.8383C320.539 33.2287 321.045 30.9291 322.056 28.9393C323.099 26.9168 324.502 25.3348 326.263 24.1931C328.025 23.0188 330.032 22.4316 332.282 22.4316C333.554 22.4316 334.713 22.6274 335.756 23.0188C336.832 23.3775 337.763 23.8832 338.545 24.5355C339.36 25.188 340.045 25.9382 340.601 26.7864C341.155 27.6344 341.546 28.5478 341.774 29.5263L340.307 29.2817V22.9698H347.205V48.8536H340.209V42.6395L341.774 42.4928C341.513 43.406 341.089 44.2704 340.503 45.086C339.915 45.9015 339.182 46.6354 338.3 47.2878C337.453 47.9075 336.49 48.4132 335.413 48.8047C334.337 49.1634 333.196 49.3429 331.989 49.3429ZM333.896 43.3245C335.201 43.3245 336.344 43.0146 337.322 42.3949C338.3 41.7751 339.05 40.9107 339.572 39.8016C340.127 38.6599 340.405 37.3388 340.405 35.8383C340.405 34.3704 340.127 33.0819 339.572 31.9728C339.05 30.8638 338.3 29.9994 337.322 29.3796C336.344 28.7272 335.201 28.401 333.896 28.401C332.625 28.401 331.499 28.7272 330.52 29.3796C329.575 29.9994 328.825 30.8638 328.27 31.9728C327.716 33.0819 327.438 34.3704 327.438 35.8383C327.438 37.3388 327.716 38.6599 328.27 39.8016C328.825 40.9107 329.575 41.7751 330.52 42.3949C331.499 43.0146 332.625 43.3245 333.896 43.3245Z" fill="#263A2D"/>
<path d="M368.115 49.3436C366.973 49.3436 365.864 49.1805 364.787 48.8543C363.712 48.5281 362.733 48.0878 361.852 47.5332C360.971 46.946 360.238 46.2937 359.65 45.576C359.063 44.8257 358.687 44.0592 358.525 43.2763L360.09 42.6892L359.748 48.7564H353.191V12.6465H360.14V29.0379L358.819 28.4996C359.014 27.7168 359.389 26.9665 359.944 26.2488C360.498 25.4987 361.199 24.8462 362.048 24.2917C362.896 23.7045 363.826 23.2478 364.837 22.9217C365.848 22.5955 366.892 22.4324 367.968 22.4324C370.219 22.4324 372.225 23.0196 373.987 24.1938C375.748 25.3356 377.134 26.9175 378.146 28.94C379.189 30.9624 379.711 33.2784 379.711 35.888C379.711 38.4976 379.205 40.8136 378.194 42.836C377.184 44.8584 375.797 46.4567 374.036 47.6311C372.306 48.7728 370.333 49.3436 368.115 49.3436ZM366.452 43.4232C367.757 43.4232 368.882 43.1132 369.827 42.4935C370.806 41.8411 371.572 40.9603 372.128 39.8513C372.682 38.7096 372.959 37.3885 372.959 35.888C372.959 34.42 372.682 33.1153 372.128 31.9736C371.606 30.8319 370.855 29.9512 369.877 29.3314C368.898 28.7117 367.757 28.4017 366.452 28.4017C365.147 28.4017 364.005 28.7117 363.026 29.3314C362.048 29.9512 361.281 30.8319 360.727 31.9736C360.172 33.1153 359.896 34.42 359.896 35.888C359.896 37.3885 360.172 38.7096 360.727 39.8513C361.281 40.9603 362.048 41.8411 363.026 42.4935C364.005 43.1132 365.147 43.4232 366.452 43.4232Z" fill="#263A2D"/>
<path d="M384.578 48.8537V22.97H391.526V48.8537H384.578ZM388.003 17.6367C386.666 17.6367 385.622 17.3105 384.871 16.6581C384.122 16.0057 383.746 15.076 383.746 13.8692C383.746 12.76 384.122 11.863 384.871 11.178C385.655 10.4604 386.698 10.1016 388.003 10.1016C389.34 10.1016 390.384 10.4441 391.135 11.1291C391.885 11.7815 392.26 12.6948 392.26 13.8692C392.26 15.0108 391.868 15.9242 391.085 16.6092C390.335 17.2942 389.308 17.6367 388.003 17.6367Z" fill="#263A2D"/>
<path d="M406.675 49.3429C404.261 49.3429 402.108 48.9514 400.216 48.1685C398.357 47.3531 396.856 46.244 395.715 44.8414L400.02 41.1227C401.031 42.1992 402.157 42.982 403.396 43.4713C404.635 43.928 405.876 44.1563 407.115 44.1563C407.604 44.1563 408.044 44.1073 408.436 44.0095C408.86 43.8791 409.219 43.716 409.513 43.5203C409.807 43.2919 410.019 43.031 410.149 42.7374C410.311 42.4111 410.393 42.0687 410.393 41.7098C410.393 40.9922 410.099 40.4214 409.513 39.9973C409.186 39.8342 408.68 39.6385 407.996 39.4101C407.311 39.1491 406.43 38.8719 405.354 38.5783C403.69 38.1542 402.271 37.6651 401.097 37.1105C399.954 36.5233 399.041 35.8709 398.357 35.1533C397.769 34.4683 397.312 33.7344 396.986 32.9515C396.693 32.1359 396.546 31.2389 396.546 30.2604C396.546 29.086 396.808 28.0259 397.329 27.0799C397.851 26.1014 398.569 25.2696 399.482 24.5845C400.428 23.8995 401.505 23.3775 402.712 23.0188C403.919 22.6274 405.19 22.4316 406.528 22.4316C407.865 22.4316 409.17 22.5947 410.442 22.921C411.714 23.247 412.889 23.7201 413.965 24.3398C415.074 24.927 416.037 25.6283 416.852 26.4438L413.133 30.5539C412.546 29.9994 411.878 29.4937 411.127 29.0371C410.409 28.5804 409.659 28.2216 408.876 27.9606C408.094 27.6997 407.392 27.5692 406.773 27.5692C406.218 27.5692 405.712 27.6182 405.256 27.716C404.831 27.8139 404.473 27.9606 404.179 28.1564C403.885 28.3521 403.657 28.6131 403.494 28.9393C403.364 29.2329 403.298 29.559 403.298 29.9178C403.298 30.2766 403.38 30.6191 403.543 30.9453C403.739 31.2715 403.999 31.5489 404.325 31.7771C404.685 31.9728 405.206 32.2012 405.892 32.4621C406.609 32.7231 407.571 33.0167 408.778 33.3429C410.345 33.767 411.666 34.2399 412.741 34.7619C413.851 35.2838 414.732 35.8873 415.384 36.5723C415.939 37.1594 416.346 37.8282 416.607 38.5783C416.868 39.3286 416.998 40.1604 416.998 41.0738C416.998 42.6721 416.542 44.1073 415.629 45.3796C414.748 46.6191 413.525 47.5977 411.959 48.3154C410.393 49.0003 408.632 49.3429 406.675 49.3429Z" fill="#263A2D"/>
</svg>

<svg xmlns="http://www.w3.org/2000/svg" width="417" height="60" fill="none" viewBox="0 0 417 60"><path fill="#3d8f4a" d="M26.808 50.549a4.986 4.986 0 0 0 0 7.026 4.93 4.93 0 0 0 6.993 0 4.986 4.986 0 0 0 0-7.026l-3.497-3.514zM26.508 0h7.593v31.112l19.837-19.94 5.368 5.395-17.612 17.705h18.915v7.63H0v-7.63h18.915L1.303 16.567l5.368-5.394 19.837 19.939z"/><path fill="#263a2d" d="M102.124 49.343q-3.768 0-6.948-1.273a17 17 0 0 1-5.48-3.67q-2.3-2.397-3.572-5.626-1.272-3.279-1.272-7.144 0-3.768 1.32-6.948 1.32-3.23 3.72-5.578 2.397-2.398 5.626-3.718 3.23-1.321 6.997-1.321 2.446 0 4.795.684 2.398.637 4.355 1.909a14 14 0 0 1 3.425 3.033l-4.599 5.089a15.4 15.4 0 0 0-2.447-2.006 9.1 9.1 0 0 0-2.642-1.321 8.7 8.7 0 0 0-2.936-.49 10.1 10.1 0 0 0-3.963.783 9.8 9.8 0 0 0-3.18 2.202q-1.371 1.37-2.202 3.376-.783 1.958-.783 4.355 0 2.446.783 4.453a9.9 9.9 0 0 0 2.202 3.376q1.418 1.369 3.376 2.153 2.006.734 4.403.734 1.566 0 3.034-.44a10.6 10.6 0 0 0 2.691-1.224 11.2 11.2 0 0 0 2.251-1.81l3.572 5.724q-1.174 1.321-3.181 2.398-1.957 1.077-4.403 1.712a21 21 0 0 1-4.942.588M118.93 48.854V12.647h6.948v36.207zM132.539 48.854V22.97h6.948v25.884zm3.425-31.217q-2.006 0-3.131-.979-1.125-.978-1.126-2.789 0-1.663 1.126-2.691 1.174-1.076 3.131-1.076 2.005 0 3.132 1.027 1.125.979 1.125 2.74 0 1.713-1.175 2.74-1.124 1.028-3.082 1.028M157.18 49.343q-3.718 0-6.654-1.762-2.935-1.76-4.648-4.795-1.663-3.033-1.663-6.899 0-3.816 1.663-6.85 1.713-3.083 4.648-4.844 2.936-1.761 6.654-1.761 3.475 0 6.362 1.272t4.501 3.523l-3.816 4.6a7.6 7.6 0 0 0-1.713-1.665 8.4 8.4 0 0 0-2.25-1.223 6.9 6.9 0 0 0-2.447-.44q-2.007 0-3.571.979-1.519.93-2.398 2.593-.881 1.663-.881 3.816 0 2.104.881 3.768a7.74 7.74 0 0 0 2.494 2.642q1.567.978 3.524.979 1.271 0 2.398-.343a7.7 7.7 0 0 0 2.103-1.125 9.5 9.5 0 0 0 1.86-1.762l3.767 4.6q-1.663 2.103-4.6 3.425a15.5 15.5 0 0 1-6.214 1.272M178.074 41.075l-2.054-5.725 12.232-12.38h9.149zm-6.605 7.78V12.646h6.948v36.207zm17.516 0-9.296-11.695 4.893-3.914 12.77 15.608zM215.733 49.343q-3.768 0-6.949-1.273a17 17 0 0 1-5.479-3.67q-2.3-2.397-3.573-5.626-1.27-3.279-1.271-7.144 0-3.768 1.321-6.948 1.321-3.23 3.719-5.578 2.397-2.398 5.626-3.718 3.23-1.321 6.997-1.321 2.446 0 4.795.684 2.398.637 4.355 1.909a14 14 0 0 1 3.426 3.033l-4.601 5.089a15.4 15.4 0 0 0-2.446-2.006 9.1 9.1 0 0 0-2.642-1.321 8.7 8.7 0 0 0-2.936-.49q-2.104 0-3.963.783a9.8 9.8 0 0 0-3.18 2.202q-1.37 1.37-2.203 3.376-.782 1.958-.783 4.355 0 2.446.783 4.453a9.9 9.9 0 0 0 2.203 3.376q1.417 1.369 3.375 2.153 2.007.734 4.405.734 1.565 0 3.033-.44a10.6 10.6 0 0 0 2.691-1.224 11.2 11.2 0 0 0 2.251-1.81l3.571 5.724q-1.174 1.321-3.18 2.398-1.957 1.077-4.404 1.712a21 21 0 0 1-4.941.588M242.176 49.343q-3.23 0-5.823-1.762-2.594-1.76-4.109-4.795-1.518-3.033-1.517-6.948-.001-3.914 1.517-6.899 1.564-3.033 4.207-4.746 2.642-1.761 6.018-1.761 1.91 0 3.474.587 1.615.538 2.79 1.517a9.6 9.6 0 0 1 2.054 2.25 8.5 8.5 0 0 1 1.174 2.74l-1.467-.244V22.97h6.899v25.884h-6.997v-6.215l1.565-.146a8.3 8.3 0 0 1-1.271 2.593 10.1 10.1 0 0 1-2.203 2.202 11.5 11.5 0 0 1-2.886 1.517 10.8 10.8 0 0 1-3.425.538m1.908-6.019q1.957 0 3.425-.93 1.468-.928 2.251-2.592.832-1.713.832-3.964 0-2.202-.832-3.865-.784-1.665-2.251-2.593-1.468-.98-3.425-.979-1.91 0-3.376.979-1.418.93-2.25 2.593-.834 1.663-.833 3.865 0 2.25.833 3.964.832 1.663 2.25 2.593 1.467.93 3.376.93M263.383 48.854V22.97h6.654l.196 5.284-1.37.587q.538-1.761 1.909-3.18a10.8 10.8 0 0 1 3.376-2.349 9.9 9.9 0 0 1 4.109-.88q2.936 0 4.893 1.174 2.005 1.174 2.985 3.572 1.029 2.348 1.028 5.822v15.854h-6.949V33.539q0-1.762-.488-2.936-.49-1.175-1.517-1.713-.98-.586-2.447-.489-1.174 0-2.202.391a4.8 4.8 0 0 0-1.712 1.028 6 6 0 0 0-1.126 1.566 4.7 4.7 0 0 0-.391 1.908v15.56h-6.948M292.84 48.854V22.97h6.653l.196 5.284-1.369.587q.537-1.761 1.907-3.18a10.8 10.8 0 0 1 3.377-2.349 9.9 9.9 0 0 1 4.11-.88q2.936 0 4.893 1.174 2.005 1.174 2.985 3.572 1.027 2.348 1.027 5.822v15.854h-6.948V33.539q0-1.762-.489-2.936-.49-1.175-1.517-1.713-.98-.586-2.446-.489-1.175 0-2.202.391a4.8 4.8 0 0 0-1.713 1.028 6 6 0 0 0-1.125 1.566 4.6 4.6 0 0 0-.392 1.908v15.56h-6.947M331.989 49.343q-3.23 0-5.824-1.762-2.591-1.76-4.109-4.795-1.517-3.033-1.517-6.948 0-3.914 1.517-6.899 1.565-3.033 4.207-4.746 2.644-1.761 6.019-1.761 1.909 0 3.474.587 1.615.538 2.789 1.517a9.7 9.7 0 0 1 2.056 2.25 8.5 8.5 0 0 1 1.173 2.74l-1.467-.244V22.97h6.898v25.884h-6.996v-6.215l1.565-.146a8.4 8.4 0 0 1-1.271 2.593 10 10 0 0 1-2.203 2.202q-1.271.93-2.887 1.517a10.8 10.8 0 0 1-3.424.538m1.907-6.019q1.958 0 3.426-.93 1.467-.928 2.25-2.592.833-1.713.833-3.964 0-2.202-.833-3.865-.783-1.665-2.25-2.593-1.468-.98-3.426-.979-1.907 0-3.376.979-1.418.93-2.25 2.593t-.832 3.865q0 2.25.832 3.964.832 1.663 2.25 2.593 1.469.93 3.376.93M368.115 49.344q-1.713 0-3.328-.49a12 12 0 0 1-2.935-1.32q-1.32-.882-2.202-1.958-.881-1.125-1.125-2.3l1.565-.587-.342 6.067h-6.557v-36.11h6.949v16.392l-1.321-.538q.292-1.174 1.125-2.251a8 8 0 0 1 2.104-1.957 10.6 10.6 0 0 1 2.789-1.37 10.1 10.1 0 0 1 3.131-.49q3.376 0 6.019 1.762 2.641 1.713 4.159 4.746 1.565 3.033 1.565 6.948t-1.517 6.948-4.158 4.795q-2.595 1.713-5.921 1.713m-1.663-5.92q1.957 0 3.375-.93 1.468-.98 2.301-2.643.831-1.711.831-3.963 0-2.202-.831-3.914-.784-1.713-2.251-2.643-1.468-.93-3.425-.93-1.958 0-3.426.93t-2.299 2.643-.831 3.914q0 2.25.831 3.963.832 1.664 2.299 2.642 1.468.93 3.426.93M384.578 48.854V22.97h6.948v25.884zm3.425-31.217q-2.005 0-3.132-.979-1.124-.978-1.125-2.789 0-1.663 1.125-2.691 1.175-1.076 3.132-1.076 2.005 0 3.132 1.027 1.125.979 1.125 2.74 0 1.713-1.175 2.74-1.125 1.028-3.082 1.028M406.675 49.343q-3.621 0-6.459-1.175-2.789-1.222-4.501-3.327l4.305-3.718q1.517 1.614 3.376 2.348 1.86.685 3.719.685.733 0 1.321-.146.636-.196 1.077-.49.441-.342.636-.783.244-.489.244-1.027 0-1.077-.88-1.713-.49-.244-1.517-.587-1.028-.39-2.642-.832-2.496-.636-4.257-1.468-1.714-.881-2.74-1.957a8.2 8.2 0 0 1-1.371-2.201q-.44-1.224-.44-2.692 0-1.761.783-3.18a7.5 7.5 0 0 1 2.153-2.495 10.6 10.6 0 0 1 3.23-1.566 12.3 12.3 0 0 1 3.816-.587q2.006 0 3.914.489 1.909.49 3.523 1.419a12 12 0 0 1 2.887 2.104l-3.719 4.11a12 12 0 0 0-2.006-1.517 10.2 10.2 0 0 0-2.251-1.076q-1.174-.392-2.103-.392a7.3 7.3 0 0 0-1.517.147 3.2 3.2 0 0 0-1.077.44 2 2 0 0 0-.685.783 2.4 2.4 0 0 0-.196.979q0 .538.245 1.027.293.49.782.832.539.294 1.567.685 1.075.392 2.886.88 2.35.637 3.963 1.42 1.665.783 2.643 1.81a5.5 5.5 0 0 1 1.223 2.006q.391 1.125.391 2.496 0 2.397-1.369 4.306-1.321 1.86-3.67 2.935-2.349 1.028-5.284 1.028"/></svg>
